X:1
T:The Well-Tempered Clavier Part II Praeludium XVI
T:BWV 885
T:J. S. Bach
%%score { ( 1 4 5 ) | ( 2 3 ) }
L:1/8
Q:1/4=48
M:4/4
K:Bb
V:1 treble nm="Harp"
V:4 treble 
V:5 treble 
V:2 bass 
V:3 bass 
V:1
"^Largo" z/ z/4 G/<D/F/4 E2- E/>E/(4:3:4E/4D/4E/4D/4C/4 A/>C/(4:3:4C/4B,/4C/4B,/4A,/4 | %1
 z/ z/4 d/<A/c/4 B2- B/>B/(4:3:4B/4A/4B/4A/4G/4 =e/>G/(4:3:4G/4^F/4G/4F/4=E/4 | %2
 ^F/>G/A- A/>D/G/>B/ c2- c/>d/A/>c/ | =B/>c/d- d/>G/c/>e/ f2- f/>g/d/>f/ | e2 z2 z2 d2- | %5
 d=B e2- e/>e/d/>c/ a2- | a/>g/d/>f/ eg ^c2 d2- | d4- d/>d/=e/>g/ ^c/>d/e- | %8
 e/>d/A/>c/ B2- B/>B/A/>G/ =e/>G/^F/>=E/ | ^F/>G/A- A/>D/G/>B/ c2- c/>d/A/>c/ | %10
 B2- B/>B/e/>g/ _A4- | A/>D/F/>_A/ G>G F2- F/>F/G/>D/ | E2- E/>e/A/>c/ ^F/>D/F/>A/ d2- | %13
 d2- d/>g/c/>e/ A/>F/A/>c/ f2- | f/>b/g/>d/ f/4=e/4f/4e/4f/4e/4e/ f2- f/>_e/d/>f/ | %15
 =B2 c2- c/>d/e/>_B/ c2- | c/>c/d/>A/ B2- B/>e/G/>B/ _Ac | ^F2 G2- G/>F/G/>B/- B/>B/A/>G/ | %18
 ^F>F G2- G/>B/A/>c/ F2 | G>F E>E D z/ G/ f>d | e3/2e/4d/4 e/>c/g/>^f/ !fermata!g4 |] %21
V:2
 G,,8 | G,8 | D>C B,2 A,3 D- | D>=B, G,E _A,F, G,2- | %4
 G,2 z/ z/4[I:staff -1] E/<D/F/4[I:staff +1] =B,4 | EF G[I:staff -1]^F/>G/ A[I:staff +1] A,2 D- | %6
 DG- G/>G/D/>F/ =E2[I:staff -1] F2- | F[I:staff +1] z z/ z/4 ^C,/<D,/=E,/4 F,G, A,C, | %8
 D,F,- F,/>A,/G,/>F,/ =E,F,G,B, | A,>^F, D,B, E,C, D,2- | %10
 D, z G,2 G,/>F,/C,/>E,/ D,/>B,,/F,,/>_A,,/ | z B,,E,G, C,2 G,2- | %12
 G,>G, E,/>G,/ C,/>E,/ D,/>^F,/A,- A,/>F,/G,/>A,/ | B,2- B,/>B,/A,/>B,/ C/>A,/F,/>A,/ D2- | %14
 D2- D/>_D/C/>B,/ C2- C/>C/F/>E/ | D2[I:staff -1] E2- E[I:staff +1]G,^F,A,- | %16
 A,G,/>^F,/ G,2- G,C- C/>C/G,/>B,/ | A,2[I:staff -1] B,2[I:staff +1] z2 z/ z/4 ^F,/<G,/A,/4 | %18
 B,2- B,/>B,/A,/>G,/ A,4 | G,2- G,>^F, G,3/2=F,/4E,/4 D,/>G,,/G,- | %20
 G,/>F,/E,/>G,/ C,3/4E,/8D,/8E, !fermata!D,4 |] %21
V:3
 z2 z/ z/4[I:staff -1] B,/<A,/C/4[I:staff +1] ^F,4 | x8 | D,6- D,>E, | F,2 E,2 D,2 G,G,, | x8 | %5
 C2- C/>B,/A,/>C/ ^F,4 | G,4- G,/>A,/=E,/>G,/ F,/>D,/A,,/>C,/ | B,,2 =B,,2 A,,4 | D,8 | %9
 C,2 B,,2 A,,2 D,D,, | G,,B,,/>D,/ z2 z4 | G,,4 A,,2 =B,,2 | C,2 z C,- C,>C, B,,2- | %13
 B,,/>B,,/C,/>D,/ E,2- E,2 z/ z/4 D,/<E,/F,/4 | G,4 F,4- | F,/>G,/D,/>F,/ E,/>C,/G,,/>B,,/ A,,4 | %16
 B,,4 C,4- | C,/>D,/A,,/>C,/ B,,/>G,,/D,,/>F,,/ E,,E,/>D,/ E,=E, | D,8 | G,,8- | G,,8 |] %21
V:4
 x8 |[I:staff +1] B,C D/>[I:staff -1]F/E/>G/[I:staff +1] ^C4 | %2
[I:staff -1] z2 z G- G/>G/^F/>=E/ F2 | G2 z c c/>c/=B/>A/ B2 | %4
 z/ z/4 c/<G/B/4 A2- A/>A/G/>F/ d/>F/E/>D/ | z/ z/4 g/<d/f/4 c2- c2- c/>c/_B/>A/ | B4 A4- | %7
 A/>=E/F/>D/ A/4^G/4A/4G/4A/4G/4G/ AB- _B/>A/E/>=G/ | F2 z/ z/4 F/<=E/G/4[I:staff +1] ^C4 | %9
[I:staff -1] D2 z G G/>G/^F/>=E/ F2 | %10
 z/ z/4 G/<D/F/4 E[I:staff +1]B, C/>[I:staff -1]D/E/>C/ G/4F/4GF/ | B,2- B,/>B,/E- E/>E/D/>C/ D2- | %12
 D/>=B,/C z2 z2 z/ z/4 A/<B/^F/4 | G4 F/ z/ z z/ z/4 F/<G/A/4 | B4- B/>B/_A/>G/ A2 | %15
 G4- G z z/ z/4 G/<^F/A/4 | D2- D/>^F/G/>D/ E4 | D4- D2 ^C2 | D/>^C/D- D/>=C/D- DC C/>E/D/>C/- | %19
 C/>A,/=B, B,/>B,/C C/>C/B, z/ z/4 c/4=B- | B/>G/c- c/>c/-c- c/>c/d/>A/ !fermata!=B2 |] %21
V:5
 x8 | x8 | x8 | x8 | x8 | x8 | x8 | x8 | x8 | x8 | x8 | x8 | x8 | x8 | x8 | x8 | x8 | x8 | x8 | %19
 x8 | z4 z d- !fermata!d2 |] %21

